X: 199
T: Roses of Prince Charlie
M:4/4
R:march
L:1/8
Z:Alf Warnock - alf0@rogers.com
K:D
A2|"D"D4 F4| "Em"E2F2 "A7"G4| "D"F4 A2F2|d3e "D7"d4|
"G"B4 d2B2|"D"A2F2 E2D2|"Em"G4 F3G|"A7"E6A2|
"D"D4 "Bm"F4| "Em"E2F2 "A7"G4| "D"F4 A2F2|"G"d3B "D"A4|
"G"G4 B3c|"D"d2F2 "Bm"G2F2|"Em"E8|"D"D4 A2F2|
"D"D3D D2E2|F4 E2D2|"Em"E3F G2E2|"A7"A8|
"G"G4 B3c|"D"d4 F4| "G"G4 FG3|"A7"E6A2|
"D"D3D D2E2|F4 E2D2|"Em"E3F G2E2|"A7"A8|
"G"G4 B3c|"D"d2F2 G2F2|"Em"E8|"D"D6|]
